X:4748
T:Od Kyyeva Do Luben
O:england
S:A. Humenyuk
Q:140
M:2/4
L:1/8
K:A
A c c c | B d c2 | A c c c | B d c2 |\
(B>A) G F | E (F/2G/2) A c | \
B (B/2A/2) G F | E G A2 | \
B (B/2A/2) G F | E G A2 |]


